!!!OTL: UND WENN DIE FINSTRE NACHT THUT KOMMEN
!!!ARE: Europa, Mitteleuropa, Schweiz, Bern
!!!SCT: E0828
!!!YEM: Copyright 1995, estate of Helmut Schaffrath.
**kern
*ICvox
*Ivox
*M2/4
*k[f#c#g#]
*A:
{8e
=1
4a
8e
8g#
=2
4a
8e
8g#
=3
4a
4ee
=4
4cc#
8a}
{8a
=5
4.b
8ee
=6
4.b
8a
=7
4g#
4f#
=8
4e
4r}
=9
{4ee
8cc#
8b
=10
4.cc#
8ee
=11
4ee
8dd
8cc#
=12
4b
4r}
=13
{8ee
8ff#
8ee
8dd
=14
4cc#
4a
=15
8b
16a
16a
8b
8cc#
=16
8a
8a
4a}
=17
{8ee
8ff#
8ee
8dd
=18
4cc#
4a
=19
8b
16a
16a
8b
8cc#
=20
8a
8a
8a}
==
!!!AGN: Kilt - Lied
!!!ONB: ESAC (Essen Associative Code) Database: ERK2
!!!AMT: simple duple
!!!AIN: vox
!!!EED: Helmut Schaffrath
!!!EEV: 1.0
*-
